X:1
T:Title
%%score { ( 1 3 ) | ( 2 4 ) }
L:1/8
M:6/8
K:C
V:1 treble nm="Grand Piano"
V:3 treble 
V:2 bass 
V:4 bass 
V:1
 z3 z2[Q:1/4=92] E | E_E=E F2 F | E3- E2 E | GDE FCD |[M:5/8] E-E- E3 |[M:1/8] E | %6
[M:3/4] D2 G ^F2 c | B4- Bd | dG cB cA |[M:5/8] G-G- G3 |[M:1/8] G |[M:3/4] [EG]2 [EA] [EA]2 E | %12
 [EA]6 | [B,FG]2 [B,FA] [B,FA]2 [B,DF] |[M:5/8] [FA]-[FA]- [FA]3 |[M:1/8] A |[M:3/4] A2 d B2 d | %17
 A6 | [Ec]2 E [_EB]2 [EA] |[M:5/8] [EG]-[EG]- [EG]3 |[M:1/8] G |[M:3/4] [EG]2 [EA] [EA]2 E | %22
 [EA]6 | [B,FG]2 [B,FA] [B,EA]2 [B,DF] |[M:5/8] [FA]-[FA]- [FA]3 |[M:1/8] A |[M:3/4] A2 d A2 d | %27
 A4- AB |[M:9/8] [Ec]3 [Ec]3/2[Ec]3/2- [Ec]3/2[Fc]3/2 |[M:5/8] [Ec]-[Ec]- [Ec]3 |] %30
V:2
 z3 z2 G, | G,^F,G, A,2 A, | G,3- G,2 C | B,2 _B, A,2 ^G, |[M:5/8] G,-G,- G,3 |[M:1/8] C | %6
[M:3/4] B,2 B, A,2 A, | G,4- G,B, | B,2[K:treble] ED EC |[M:5/8] B,-B,- B,3 |[M:1/8] [G,B,F] | %11
[M:3/4][K:bass] [C,C]2 [C,C] [C,C]2 [C,C] | [C,C]2 C, C,2 C, | D,2 D, D,2 D, |[M:5/8] G,2 G, G,2 | %15
[M:1/8][K:treble] [G,B,F] |[M:3/4] [G,B,F]2 [G,B,F] [G,B,F]2 [G,B,F] | F6 | %18
 [C,G,]2 [C,G,] [C,^F,]2 [C,F,] |[M:5/8] [C,G,]-[C,G,]- [C,G,]3 |[M:1/8] [G,B,] | %21
[M:3/4] [C,C]2 [C,C] [C,C]2 [C,C] | [C,C]2 C, C,2 C, | D,2 D, D,2 D, |[M:5/8] G,2 G, G,2 | %25
[M:1/8][K:treble] [G,B,F] |[M:3/4] [G,B,F]2 [G,B,F] [G,B,F]2 [G,B,F] | [G,B,F]4- [G,B,F][G,B,F] | %28
[M:9/8][K:bass] [C,G,]3 [C,G,]3/2[C,G,]3/2- [C,G,]3/2[C,^G,]3/2 |[M:5/8] [C,G,]-[C,G,]- [C,G,]3 |] %30
V:3
 x6 | x6 | x6 | x6 |[M:5/8] x5 |[M:1/8] x |[M:3/4] x6 | x6 | x6 |[M:5/8] x5 |[M:1/8] x | %11
[M:3/4] x6 | z2 C C2 [CEG] | x6 |[M:5/8] B,2 B, B,2 |[M:1/8] x |[M:3/4] x6 | z2 B, B,2 B | x6 | %19
[M:5/8] x5 |[M:1/8] x |[M:3/4] x6 | z2 C C2 [CEG] | x6 |[M:5/8] B,2 B, B,2 |[M:1/8] x |[M:3/4] x6 | %27
 x6 |[M:9/8] x9 |[M:5/8] x5 |] %30
V:4
 x6 | x6 | x6 | x6 |[M:5/8] x5 |[M:1/8] x |[M:3/4] x6 | x6 | x2[K:treble] x4 |[M:5/8] x5 | %10
[M:1/8] x |[M:3/4][K:bass] x6 | x6 | x6 |[M:5/8] x5 |[M:1/8][K:treble] x |[M:3/4] x6 | %17
 [G,B,]2 G, G,2 [G,B,F] | x6 |[M:5/8] x5 |[M:1/8] x |[M:3/4] x6 | x6 | x6 |[M:5/8] x5 | %25
[M:1/8][K:treble] x |[M:3/4] x6 | x6 |[M:9/8][K:bass] x9 |[M:5/8] x5 |] %30

